static/images/mobile/copyright/wikipedia-wordmark-ast.svg

<?xml version="1.0" encoding="UTF-8"?>
<svg width="120px" height="23px" viewBox="0 0 120 23" version="1.1" xmlns="http://www.w3.org/2000/svg" xmlns:xlink="http://www.w3.org/1999/xlink">
    <title>ast-wordmark</title>
    <g id="Page-1" stroke="none" stroke-width="1" fill="none" fill-rule="evenodd">
        <path d="M0.054,0.297 C0.054,0.297 2.403001,0.351 3.456,0.351 C4.35023908,0.351 6.54708945,0.3052944 6.89286238,0.297981504 L6.939,0.297 L6.993,0.351 L6.993,0.864 C6.993,0.999 6.912,1.08 6.777,1.08 L6.777,1.08 L6.075,1.134 C4.968001,1.215 4.59,1.566 4.59,2.322 L4.59,2.322 L4.59094093,10.9634979 C4.60082057,12.583225 4.7144357,14.2724348 6.021,15.579 C6.830999,16.362 7.938001,16.929 9.234,16.929 C13.796995,16.929 14.202,13.311 14.202,10.287 L14.202,10.287 L14.202,2.376 C14.202,1.539 13.823999,1.215 12.744,1.134 L12.744,1.134 L12.015,1.08 C11.907,1.08 11.799,0.999 11.799,0.864 L11.799,0.864 L11.799,0.351 L11.853,0.297 C11.853,0.297 13.770001,0.351 14.823,0.351 C15.794999,0.351 17.793,0.297 17.793,0.297 L17.793,0.297 L17.847,0.351 L17.847,0.864 C17.847,0.999 17.766,1.08 17.631,1.08 L17.631,1.08 L16.929,1.134 C15.822001,1.215 15.444,1.62 15.444,2.376 L15.444,2.376 L15.444,9.801 C15.444,14.607 14.201994,18.036 8.667,18.036 C6.237002,18.036 2.403,16.90199 2.403,11.394 L2.403,11.394 L2.403,2.322 C2.403,1.485 1.9979989,1.215 0.945,1.134 L0.945,1.134 L0.216,1.08 C0.1080001,1.08 7.10542736e-15,0.999 7.10542736e-15,0.864 L7.10542736e-15,0.864 L7.10542736e-15,0.351 Z M17.215,5.292 C17.215,5.292 19.348,5.346 20.185,5.346 C20.913999,5.346 22.993,5.292 22.993,5.292 L22.993,5.292 L23.02,5.346 L23.02,5.94 C23.02,6.021 22.965999,6.075 22.858,6.075 L22.858,6.075 L22.291,6.129 C21.454,6.21 21.157,6.426 21.157,6.966 L21.157,6.966 L21.157,15.957 C21.157,16.551 21.427,16.902 22.291,16.983 L22.291,16.983 L22.858,17.037 C22.939,17.037 23.02,17.091 23.02,17.199 L23.02,17.199 L23.02,17.766 L22.993,17.82 C22.993,17.82 20.940999,17.766 20.104,17.766 L19.9928659,17.7663246 C19.1608967,17.7707975 17.242,17.82 17.242,17.82 L17.242,17.82 L17.188,17.766 L17.188,17.199 C17.188,17.091 17.269,17.037 17.377,17.037 L17.377,17.037 L17.917,16.983 C18.807999,16.902 19.078,16.47 19.078,15.957 L19.078,15.957 L19.078,6.966 C19.078,6.372 18.753999,6.21 17.917,6.129 L17.917,6.129 L17.377,6.075 C17.269,6.075 17.188,6.048 17.188,5.967 L17.188,5.967 L17.188,5.346 Z M30.598014,4.968 C34.10801,4.968 37.078014,7.587 37.078014,11.421 C37.078014,14.472 35.350011,17.253 32.002014,17.928 C31.300015,18.171 30.409013,18.576 29.518014,19.17 C29.626014,19.143 29.734014,19.143 29.815014,19.143 C32.218012,19.143 33.784016,20.898 35.701014,20.898 C36.322013,20.898 37.105014,20.682 37.564014,20.115 L37.564014,20.115 L37.942014,20.385 C37.105015,21.6 36.187013,22.167 34.810014,22.167 C32.029017,22.167 30.814012,20.088 28.816014,20.088 C28.492014,20.088 27.655014,20.358 27.223014,21.357 L27.223014,21.357 L26.386014,20.952 C27.061013,20.007 28.357015,18.873 29.815014,18.063 C26.467017,17.793 24.064014,15.255 24.064014,11.772 C24.064014,7.803 26.845018,4.968 30.598014,4.968 Z M36.825,5.292 C36.825,5.292 38.850001,5.346 39.687,5.346 C40.443,5.346 42.468,5.292 42.468,5.292 L42.468,5.292 L42.522,5.346 L42.522,5.94 C42.522,6.021 42.468,6.075 42.36,6.075 L42.36,6.075 L41.82,6.129 C40.956001,6.21 40.659,6.426 40.659,6.966 L40.659,6.966 L40.659,12.312 C40.659,14.823 41.037003,17.253 43.926,17.253 C47.3316,17.253 47.5076133,14.6397467 47.5165319,12.3815013 L47.517,6.966 C47.517,6.372 47.166,6.21 46.356,6.129 L46.356,6.129 L45.816,6.075 C45.708,6.075 45.627,6.021 45.627,5.94 L45.627,5.94 L45.627,5.346 L45.681,5.292 C45.681,5.292 47.301001,5.346 48.111,5.346 C48.867,5.346 50.352,5.292 50.352,5.292 L50.352,5.292 L50.406,5.346 L50.406,5.94 C50.406,6.021 50.352,6.075 50.244,6.075 L50.244,6.075 L49.785,6.129 C48.948001,6.237 48.732,6.426 48.732,6.966 L48.732,6.966 L48.732,11.718 C48.732,15.471 47.813996,18.036 43.467,18.036 C41.604002,18.036 38.58,16.794 38.58,12.879 L38.58,12.879 L38.58,6.966 C38.58,6.372 38.282999,6.237 37.419,6.129 L37.419,6.129 L36.933,6.075 C36.852,6.075 36.771,6.021 36.771,5.94 L36.771,5.94 L36.771,5.346 Z M30.355014,5.913 C28.330016,5.913 26.305014,7.803 26.305014,11.448 C26.305014,14.769 28.168017,17.172 30.787014,17.172 C33.190012,17.172 34.837014,15.12 34.837014,11.799 C34.837014,8.181 32.758012,5.913 30.355014,5.913 Z M55.157032,6.966 C55.157032,6.426 55.454033,6.21 56.291032,6.129 L56.858032,6.075 C56.966032,6.075 57.020032,6.021 57.020032,5.94 L57.020032,5.346 L56.993032,5.292 C56.993032,5.292 54.914032,5.346 54.185032,5.346 C53.348033,5.346 51.215032,5.292 51.215032,5.292 L51.188032,5.346 L51.188032,5.967 C51.188032,6.048 51.269032,6.075 51.377032,6.075 L51.917032,6.129 C52.754032,6.21 53.078032,6.372 53.078032,6.966 L53.078032,15.957 C53.078032,16.47 52.808031,16.902 51.917032,16.983 L51.377032,17.037 C51.269032,17.037 51.188032,17.091 51.188032,17.199 L51.188032,17.766 L51.242032,17.82 C51.242032,17.82 53.348033,17.766 54.104032,17.766 C54.941032,17.766 56.993032,17.82 56.993032,17.82 L57.020032,17.766 L57.020032,17.199 C57.020032,17.091 56.939032,17.037 56.858032,17.037 L56.291032,16.983 C55.427033,16.902 55.157032,16.551 55.157032,15.957 L55.157032,6.966 M61.844049,7.02 C61.844049,6.318 62.16805,6.075 63.464049,6.075 C64.949047,6.075 66.002049,6.588 66.002049,8.91 C66.002049,10.989 65.219047,11.961 63.599049,11.961 C63.059049,11.961 62.384048,11.934 61.844049,11.718 L61.844049,7.02 M59.765049,16.092 C59.765049,16.605 59.495048,16.848 58.658049,16.956 L58.091049,17.037 C57.983049,17.064 57.929049,17.091 57.929049,17.199 L57.929049,17.766 L57.956049,17.82 C57.956049,17.82 59.98105,17.766 60.737049,17.766 C61.574048,17.766 63.734049,17.82 63.734049,17.82 L63.761049,17.766 L63.761049,17.199 C63.761049,17.091 63.680049,17.064 63.572049,17.037 L63.032049,16.956 C62.16805,16.821 61.844049,16.686 61.844049,16.092 L61.844049,12.474 C62.330048,12.69 62.870049,12.744 63.545049,12.744 C67.379045,12.744 68.162049,10.206 68.162049,8.586 C68.162049,7.182 67.460045,5.292 63.626049,5.292 C62.62705,5.292 61.547048,5.346 60.791049,5.346 C60.00805,5.346 58.415048,5.292 58.010049,5.292 L57.956049,5.319 L57.956049,5.94 C57.956049,5.994 57.983049,6.075 58.145049,6.075 C59.414047,6.156 59.765049,6.183 59.765049,7.02 L59.765049,16.092 M76.313811,17.766 C77.123811,17.766 78.716811,17.82 78.716811,17.82 L78.770811,17.766 L79.310811,14.661 L78.635811,14.58 C78.311812,15.984 77.55581,16.848 76.178811,16.848 L73.613811,16.848 C73.127812,16.848 72.830811,16.335 72.830811,15.822 L72.830811,11.691 L74.855811,11.691 C75.557811,11.691 75.800811,11.988 75.908811,12.528 L76.043811,13.122 C76.043811,13.203 76.097811,13.257 76.232811,13.257 L76.691811,13.257 L76.745811,13.203 C76.691811,12.582 76.583811,12.015 76.583811,11.34 C76.583811,10.692 76.691811,9.936 76.745811,9.342 C76.745811,9.288 76.745811,9.261 76.691811,9.261 L76.232811,9.261 C76.124811,9.261 76.070811,9.315 76.070811,9.396 L75.908811,9.963 C75.800811,10.503 75.611811,10.827 74.855811,10.827 L72.830811,10.827 L72.830811,6.912 C72.830811,6.453 73.100812,6.264 73.613811,6.264 L75.773811,6.264 C77.50181,6.264 78.014812,7.695 78.311811,8.694 L78.986811,8.586 C78.797812,7.56 78.608811,6.507 78.581811,5.346 L78.527811,5.292 C78.527811,5.292 76.610811,5.346 75.800811,5.346 L71.831811,5.346 C71.021812,5.346 68.915811,5.292 68.915811,5.292 L68.888811,5.346 L68.888811,5.967 C68.888811,5.994 68.888811,6.048 69.050811,6.075 L69.671811,6.129 C70.427811,6.183 70.751811,6.291 70.751811,6.912 L70.751811,15.822 C70.751811,16.362 70.50881,16.902 69.671811,16.983 L69.050811,17.037 C68.915811,17.037 68.888811,17.118 68.888811,17.172 L68.888811,17.766 L68.915811,17.82 C68.915811,17.82 70.778812,17.766 71.588811,17.766 L76.313811,17.766 M80.323191,17.199 L80.323191,17.766 L80.350191,17.82 C80.350191,17.82 82.402192,17.766 83.212191,17.766 C84.04919,17.766 84.994193,17.82 87.154191,17.82 C90.151185,17.82 93.49919,16.416 93.49919,11.691 C93.49919,8.1 91.28518,5.292 86.776191,5.292 C86.074192,5.292 83.72519,5.346 83.212191,5.346 C82.726191,5.346 80.350191,5.292 80.350191,5.292 L80.323191,5.346 L80.323191,5.94 C80.323191,6.021 80.404191,6.075 80.512191,6.075 L81.106191,6.129 C81.99719,6.21 82.186191,6.21 82.186191,6.912 L82.186191,15.822 C82.186191,16.659 81.91619,16.902 81.106191,16.983 L80.485191,17.037 C80.377191,17.037 80.323191,17.118 80.323191,17.199 M84.265191,15.822 L84.265191,6.912 C84.265191,6.237 84.940192,6.075 85.993191,6.075 C90.529185,6.075 91.15019,9.342 91.15019,12.15 C91.15019,15.93 89.476188,17.037 86.506191,17.037 C84.454193,17.037 84.265191,16.578 84.265191,15.822 M98.62695,6.966 C98.62695,6.426 98.92395,6.21 99.76095,6.129 L100.32795,6.075 C100.43595,6.075 100.48995,6.021 100.48995,5.94 L100.48995,5.346 L100.46295,5.292 C100.46295,5.292 98.38395,5.346 97.65495,5.346 C96.81795,5.346 94.68495,5.292 94.68495,5.292 L94.65795,5.346 L94.65795,5.967 C94.65795,6.048 94.73895,6.075 94.84695,6.075 L95.38695,6.129 C96.22395,6.21 96.54795,6.372 96.54795,6.966 L96.54795,15.957 C96.54795,16.47 96.27796,16.902 95.38695,16.983 L94.84695,17.037 C94.73895,17.037 94.65795,17.091 94.65795,17.199 L94.65795,17.766 L94.71195,17.82 C94.71195,17.82 96.81795,17.766 97.57395,17.766 C98.41095,17.766 100.46295,17.82 100.46295,17.82 L100.48995,17.766 L100.48995,17.199 C100.48995,17.091 100.40895,17.037 100.32795,17.037 L99.76095,16.983 C98.89695,16.902 98.62695,16.551 98.62695,15.957 L98.62695,6.966 M107.63642,10.125 C107.04242,10.125 106.85342,10.044 106.96142,9.774 L109.66142,2.916 L109.71542,2.916 L112.33442,10.125 L107.63642,10.125 M104.63942,15.633 L106.20543,11.718 C106.34043,11.367 106.50242,11.259 107.15042,11.259 L112.76642,11.259 L114.41342,15.822 C114.68342,16.578 114.30542,16.902 113.27942,16.983 L112.52342,17.037 C112.38842,17.037 112.33443,17.118 112.33443,17.253 L112.33443,17.766 L112.36143,17.82 C112.36143,17.82 115.00743,17.766 115.95243,17.766 C117.00542,17.766 119.08442,17.82 119.08442,17.82 L119.16542,17.766 L119.16542,17.253 C119.16542,17.118 119.03042,17.037 118.89542,17.037 L118.59842,17.01 C117.51842,16.902 116.97842,16.497 116.60042,15.444 L111.06542,0.81 C110.84942,0.27 110.71442,-1.42108547e-14 110.33642,-1.42108547e-14 C109.93142,-1.42108547e-14 109.71542,0.27 109.41842,0.972 L103.42442,15.012 C102.66842,16.74 101.99342,16.956 100.80542,17.037 C100.67042,17.037 100.58942,17.118 100.58942,17.253 L100.58942,17.766 L100.64342,17.82 C100.64342,17.82 102.37142,17.766 103.07342,17.766 C103.72142,17.766 106.66442,17.82 106.66442,17.82 L106.71842,17.766 L106.71842,17.253 C106.71842,17.118 106.61042,17.037 106.50242,17.037 L105.71942,16.983 C104.72043,16.902 104.36943,16.308 104.63942,15.633" id="ast-wordmark" fill="#000000" fill-rule="nonzero"></path>
    </g>
</svg>

<svg xmlns="http://www.w3.org/2000/svg" width="120" height="23"><path fill="#000" fill-rule="nonzero" d="M.054.297s2.349.054 3.402.054c.894 0 3.091-.046 3.437-.053l.046-.001.054.054v.513c0 .135-.081.216-.216.216l-.702.054c-1.107.081-1.485.432-1.485 1.188v8.641c.01 1.62.124 3.31 1.431 4.616.81.783 1.917 1.35 3.213 1.35 4.563 0 4.968-3.618 4.968-6.642V2.376c0-.837-.378-1.161-1.458-1.242l-.729-.054a.213.213 0 0 1-.216-.216V.351l.054-.054s1.917.054 2.97.054c.972 0 2.97-.054 2.97-.054l.054.054v.513c0 .135-.081.216-.216.216l-.702.054c-1.107.081-1.485.486-1.485 1.242v7.425c0 4.806-1.242 8.235-6.777 8.235-2.43 0-6.264-1.134-6.264-6.642V2.322c0-.837-.405-1.107-1.458-1.188L.216 1.08A.213.213 0 0 1 0 .864V.351Zm17.161 4.995s2.133.054 2.97.054c.729 0 2.808-.054 2.808-.054l.027.054v.594c0 .081-.054.135-.162.135l-.567.054c-.837.081-1.134.297-1.134.837v8.991c0 .594.27.945 1.134 1.026l.567.054c.081 0 .162.054.162.162v.567l-.027.054s-2.052-.054-2.889-.054h-.111c-.832.005-2.751.054-2.751.054l-.054-.054v-.567c0-.108.081-.162.189-.162l.54-.054c.891-.081 1.161-.513 1.161-1.026V6.966c0-.594-.324-.756-1.161-.837l-.54-.054c-.108 0-.189-.027-.189-.108v-.621Zm13.383-.324c3.51 0 6.48 2.619 6.48 6.453 0 3.051-1.728 5.832-5.076 6.507-.702.243-1.593.648-2.484 1.242.108-.027.216-.027.297-.027 2.403 0 3.969 1.755 5.886 1.755.621 0 1.404-.216 1.863-.783l.378.27c-.837 1.215-1.755 1.782-3.132 1.782-2.781 0-3.996-2.079-5.994-2.079-.324 0-1.161.27-1.593 1.269l-.837-.405c.675-.945 1.971-2.079 3.429-2.889-3.348-.27-5.751-2.808-5.751-6.291 0-3.969 2.781-6.804 6.534-6.804Zm6.227.324s2.025.054 2.862.054c.756 0 2.781-.054 2.781-.054l.054.054v.594c0 .081-.054.135-.162.135l-.54.054c-.864.081-1.161.297-1.161.837v5.346c0 2.511.378 4.941 3.267 4.941 3.406 0 3.582-2.613 3.59-4.871l.001-5.416c0-.594-.351-.756-1.161-.837l-.54-.054c-.108 0-.189-.054-.189-.135v-.594l.054-.054s1.62.054 2.43.054c.756 0 2.241-.054 2.241-.054l.054.054v.594c0 .081-.054.135-.162.135l-.459.054c-.837.108-1.053.297-1.053.837v4.752c0 3.753-.918 6.318-5.265 6.318-1.863 0-4.887-1.242-4.887-5.157V6.966c0-.594-.297-.729-1.161-.837l-.486-.054c-.081 0-.162-.054-.162-.135v-.594Zm-6.47.621c-2.025 0-4.05 1.89-4.05 5.535 0 3.321 1.863 5.724 4.482 5.724 2.403 0 4.05-2.052 4.05-5.373 0-3.618-2.079-5.886-4.482-5.886Zm24.802 1.053c0-.54.297-.756 1.134-.837l.567-.054c.108 0 .162-.054.162-.135v-.594l-.027-.054s-2.079.054-2.808.054c-.837 0-2.97-.054-2.97-.054l-.027.054v.621c0 .081.081.108.189.108l.54.054c.837.081 1.161.243 1.161.837v8.991c0 .513-.27.945-1.161 1.026l-.54.054c-.108 0-.189.054-.189.162v.567l.054.054s2.106-.054 2.862-.054c.837 0 2.889.054 2.889.054l.027-.054v-.567c0-.108-.081-.162-.162-.162l-.567-.054c-.864-.081-1.134-.432-1.134-1.026V6.966m6.687.054c0-.702.324-.945 1.62-.945 1.485 0 2.538.513 2.538 2.835 0 2.079-.783 3.051-2.403 3.051-.54 0-1.215-.027-1.755-.243V7.02m-2.079 9.072c0 .513-.27.756-1.107.864l-.567.081c-.108.027-.162.054-.162.162v.567l.027.054s2.025-.054 2.781-.054c.837 0 2.997.054 2.997.054l.027-.054v-.567c0-.108-.081-.135-.189-.162l-.54-.081c-.864-.135-1.188-.27-1.188-.864v-3.618c.486.216 1.026.27 1.701.27 3.834 0 4.617-2.538 4.617-4.158 0-1.404-.702-3.294-4.536-3.294-.999 0-2.079.054-2.835.054-.783 0-2.376-.054-2.781-.054l-.054.027v.621c0 .054.027.135.189.135 1.269.081 1.62.108 1.62.945v9.072m16.549 1.674c.81 0 2.403.054 2.403.054l.054-.054.54-3.105-.675-.081c-.324 1.404-1.08 2.268-2.457 2.268h-2.565c-.486 0-.783-.513-.783-1.026v-4.131h2.025c.702 0 .945.297 1.053.837l.135.594c0 .081.054.135.189.135h.459l.054-.054c-.054-.621-.162-1.188-.162-1.863 0-.648.108-1.404.162-1.998 0-.054 0-.081-.054-.081h-.46c-.107 0-.161.054-.161.135l-.162.567c-.108.54-.297.864-1.053.864H72.83V6.912c0-.459.27-.648.783-.648h2.16c1.728 0 2.24 1.431 2.538 2.43l.675-.108c-.19-1.026-.378-2.079-.405-3.24l-.054-.054s-1.917.054-2.727.054h-3.97c-.81 0-2.915-.054-2.915-.054l-.027.054v.621c0 .027 0 .081.162.108l.62.054c.757.054 1.08.162 1.08.783v8.91c0 .54-.242 1.08-1.08 1.161l-.62.054c-.135 0-.162.081-.162.135v.594l.027.054s1.863-.054 2.673-.054h4.725m4.01-.567v.567l.026.054s2.052-.054 2.862-.054c.837 0 1.782.054 3.942.054 2.997 0 6.345-1.404 6.345-6.129 0-3.591-2.214-6.399-6.723-6.399-.702 0-3.05.054-3.564.054-.486 0-2.862-.054-2.862-.054l-.027.054v.594c0 .081.081.135.19.135l.593.054c.891.081 1.08.081 1.08.783v8.91c0 .837-.27 1.08-1.08 1.161l-.62.054c-.109 0-.163.081-.163.162m3.942-1.377v-8.91c0-.675.675-.837 1.728-.837 4.536 0 5.157 3.267 5.157 6.075 0 3.78-1.674 4.887-4.644 4.887-2.052 0-2.24-.459-2.24-1.215m14.36-8.856c0-.54.298-.756 1.135-.837l.567-.054c.108 0 .162-.054.162-.135v-.594l-.027-.054s-2.079.054-2.808.054c-.837 0-2.97-.054-2.97-.054l-.027.054v.621c0 .081.081.108.189.108l.54.054c.837.081 1.16.243 1.16.837l.001 8.991c0 .513-.27.945-1.161 1.026l-.54.054c-.108 0-.189.054-.189.162v.567l.054.054s2.106-.054 2.862-.054c.837 0 2.889.054 2.889.054l.027-.054v-.567c0-.108-.081-.162-.162-.162l-.567-.054c-.864-.081-1.134-.432-1.134-1.026V6.966m9.01 3.159c-.595 0-.784-.081-.676-.351l2.7-6.858h.054l2.62 7.209h-4.699m-2.997 5.508 1.566-3.915c.135-.351.297-.459.945-.459h5.616l1.647 4.563c.27.756-.108 1.08-1.134 1.161l-.756.054c-.135 0-.189.081-.189.216v.513l.027.054s2.646-.054 3.591-.054c1.053 0 3.132.054 3.132.054l.081-.054v-.513c0-.135-.135-.216-.27-.216l-.297-.027c-1.08-.108-1.62-.513-1.998-1.566L111.065.81c-.216-.54-.35-.81-.729-.81-.405 0-.62.27-.918.972l-5.994 14.04c-.756 1.728-1.43 1.944-2.619 2.025-.135 0-.216.081-.216.216v.513l.054.054s1.728-.054 2.43-.054c.648 0 3.591.054 3.591.054l.054-.054v-.513a.213.213 0 0 0-.216-.216l-.783-.054c-.999-.081-1.35-.675-1.08-1.35"/></svg>
